X: 1
T:Reel de Port Neuf
R:reel
S:Jean Carignan; Hommage a Joseph Allard, Philo
M:C|
E:7
Z:posted by Bruce Culbertson 12/96
K:Bb
(3fga|:bfdB FBdf|gecB AcFE|DFBd ecAc|Bf=eg f2(3fga|\
bfdB FBdf|gecB AcFE|DFBd ecAc|Bbfd B4:|
FD|:B,DFB dBFD|CEGc ecGc|Bdfd egce|dfAc BGFD|\
B,DFB dBFD|CEGc ecGc|Bdfd gecA|Bbfd B4:|
